X:345
T:Reel 345
M:4/4
K:Emin
L:1/8
EFGB E2dB|B2AB FDAD|EBGF E2GB||Beef gee2:||2Beed e2e2|gfga bgeg|fefg afdf|gfga bgef|gefd Beef|gfga bgeg|fefg afdf|gfed B2df|gefd Beed|
